X: 20
T:The Cape Breton Visit to Shetland
R:reel
C:
Z: 1997 by John Chambers <jc@eddie.mit.edu> http://eddie.mit.edu/~jc/music/abc/
M:C|
L:1/8
Q:1/4=200
K:A
AF \
| EC ~C2 C2B,C | A,B,CE FECE | FB~B2 BcBA | Bffe f2fg |
| ac ~c2 eA ~A2 | cBAF EC ~C2 | FGAF Eaaf | ecBc A2 :|
|: fg \
| ae ~e2 efed | ce ~e2 fece | bf ~f2 fgfe | defd B2fg |
| ae ~e2 efed | ce ~e2 fece |[1 fdge afed | cdBc A2 :|[2 fdec dBcA | Bagf eAGF :|
|| ed \
| cdBc ABGA | FGEF DECD | B,CDE F^ABc | defg a4 |]
